X: 6614
T: Cavalier's Daughter, The
R: jig
M: 6/8
K: Dmajor
FG|:ABA AFd|A2dd2c|cBA AGF|FDB AFG|ABA AFd|
A2dd2f|1 fec edB|AcB AFG:|2 fe^d ecA|dfe d2A||
BGB BdB|AFA AdA|GEG FDF|E^GB A2A|
AGF FGA|A2G E2G|GFE EFG|G2FD2d|
dcB AGF|B2G E2G|AFD DFA|BGD DGB|
dcB BAF|AGE F2A|dcB BAF|AGE D3||

